icons/find-replace-line.svg

<svg xmlns="http://www.w3.org/2000/svg" width="24" height="24" fill="none"><g clip-path="url(#a)"><g><path fill="#121212" d="M18.033 16.618L22.313 20.899L20.899 22.314L16.619 18.033C15.0248 19.3097 13.0424 20.0037 11 20C9.32335 20.0007 7.67984 19.533 6.25482 18.6496C4.82981 17.7661 3.67997 16.5021 2.935 15H9L7.696 17.173C8.71203 17.7176 9.84723 18.0017 11 18C12.8204 18.0029 14.5699 17.2941 15.875 16.025L16.025 15.875C17.2941 14.5699 18.0029 12.8204 18 11C18 10.305 17.899 9.634 17.71 9H19.777C19.923 9.643 20 10.313 20 11C20.0035 13.0421 19.3095 15.0241 18.033 16.618ZM19.065 7H13L14.304 4.827C13.288 4.28243 12.1528 3.99828 11 4C7.132 4 4 7.132 4 11C4 11.695 4.101 12.366 4.29 13H2.223C2.07445 12.3437 1.99965 11.6729 2 11C2 6.027 6.027 2 11 2C12.6767 1.99926 14.3202 2.46699 15.7452 3.35045C17.1702 4.23391 18.32 5.49794 19.065 7Z"/></g></g><defs><clipPath id="a"><rect width="24" height="24" fill="white"/></clipPath></defs></svg>

<svg width="24" height="24" fill="none" xmlns="http://www.w3.org/2000/svg"><g clip-path="url(#a)"><path d="m18.033 16.618 4.28 4.281-1.414 1.415-4.28-4.281A8.963 8.963 0 0 1 11 20a8.999 8.999 0 0 1-8.065-5H9l-1.304 2.173A6.972 6.972 0 0 0 11 18a6.977 6.977 0 0 0 4.875-1.975l.15-.15A6.977 6.977 0 0 0 18 11c0-.695-.101-1.366-.29-2h2.067c.146.643.223 1.313.223 2a8.963 8.963 0 0 1-1.967 5.618ZM19.065 7H13l1.304-2.173A6.972 6.972 0 0 0 11 4c-3.868 0-7 3.132-7 7 0 .695.101 1.366.29 2H2.223A9.038 9.038 0 0 1 2 11c0-4.973 4.027-9 9-9a8.998 8.998 0 0 1 8.065 5Z" /></g><defs><clipPath id="a"><path fill="#fff" d="M0 0h24v24H0z"/></clipPath></defs></svg>
